X: 34754
T: Road To Loch Nam Bairneas, The
R: reel
M: 4/4
K: Bminor
|:B4 B2AB|d2f2 f2ef|a2f2 f2ef|aefd B2AG|
B4 B2AB|d2f2 f2ef|a3f edef|1 B4 B2ef:|2 B4 B2AB||
|:d4 dBde|f2ef B2AG|f2ef a2fe|f2ef B2AG|
d4 dBde|f2ef B2AG|a3f edef|B4 B2AB:|
|:GBdB GBde|f2af edef|B2AB dABd|f2ed B2AG|
GBdB GBde|f2af edef|a3f edef|1 B4 B2AB:|2 B4 B2de||
|:fafa d3e|fafd B2AG|GBdB dBde|f2ed B2AG|
fafa d3e|fafd B2AG|a3f edef|1 B4 B2de:|2 B4 B2AB||

